!!!!SEGMENT: pl-cz--i-57--001_mrozowski-tadeusz--rotate-ex-d-rotate.krn
!!!cenid: 17xx:238
!!!COM: Mrozowski, Tadeusz
!!!COM-rismid: pe30020313
!!!CDT: <1790->1810
!!!CNT:
!!!OTL: Rotate ex D - Rotate
!!!PDT:
!!!AGN: Sacred
!!!SMS-siglum: PL-CZ
!!!SMS-shelfmark: I-57
!!!SMS-shelfwork: 001-001 M
!!!NIFC-rismid:
!!!URL-scan: http://repozytorium.nifc.pl/skany/pl-cz-nut--i-57
!!!ONB-nifc: UWAGA: części Rorate: Rorate, Tryumfuy niebo
**kern	**kern	**kern	**kern	**text	**kern	**text	**kern	**text	**kern	**kern	**kern	**kern	**kern
*part11	*part10	*part9	*part8	*part8	*part7	*part7	*part6	*part6	*part5	*part4	*part3	*part2	*part1
*	*group3	*group3	*group2	*	*group2	*	*group2	*	*	*group1	*group1	*group1	*group1
*staff11	*staff10	*staff9	*staff8	*staff8	*staff7	*staff7	*staff6	*staff6	*staff5	*staff4	*staff3	*staff2	*staff1
*I"Baſso	*I"Violino 2do.	*I"Violino 1mo.	*I"Baſso Vocali	*	*I"Canto 2do.	*	*I"Canto Primo.	*	*I"Tympano in D. A.	*I"Clarino 2do ex D.	*I"Clarino 1mo	*I"Cornu secondo ex F.	*I"Cornu 1mo ex F.
*I'Baſso	*I'Vln II	*I'Vln I	*I'B	*	*I'C II	*	*I'C I	*	*	*I'Clno II	*I'Clno I	*I'C. in F	*I'C. in F
*clefF4	*clefG2	*clefG2	*clefF4	*	*clefC1	*	*clefC1	*	*clefF4	*clefG2	*clefG2	*clefG2	*clefG2
*	*	*	*	*	*	*	*	*	*	*ITrd-1c-2	*ITrd-1c-2	*ITrd4c7	*ITrd4c7
*k[f#c#]	*k[f#c#]	*k[f#c#]	*k[f#c#]	*	*k[f#c#]	*	*k[f#c#]	*	*k[]	*k[f#c#]	*k[f#c#]	*k[f#c#]	*k[f#c#]
*D:	*D:	*D:	*D:	*	*D:	*	*D:	*	*D:	*	*	*	*
*M4/4	*M4/4	*M4/4	*M4/4	*	*M4/4	*	*M4/4	*	*M4/4	*M4/4	*M4/4	*M4/4	*M4/4
*met(C.)	*met(C.)	*met(C.)	*met(c)	*	*met(C.)	*	*met(c)	*	*met(c)	*met(C.)	*met(C.)	*met(c)	*met(c)
=1	=1	=1	=1	=1	=1	=1	=1	=1	=1	=1	=1	=1	=1
!	!	!	!LO:TX:a:t=1	!	!LO:TX:a:t=1	!	!	!	!	!	!	!	!
!	!	!LO:TX:a:t=P:problem:mixed beam	!	!	!LO:TX:a:t=P:problem:kolejność znaków cc# f#	!	!LO:TX:a:t=P:problem:kolejność znaków c# f# cc#, "R" przed kluczem	!	!	!	!LO:TX:a:i:t=Rorate.	!	!LO:TX:a:t=P:problem:domyślny Tacet. Instrument nie gra w tej części
!LO:TX:a:i:t=Vivace	!LO:TX:a:Bi:t=Tutti.	!LO:TX:a:Bi:t=Tutti. Vivace.	!LO:TX:a:Bi:t=Tutti. Vivace.	!	!LO:TX:a:i:t=Tutti Vivace	!	!LO:TX:a:B:t=Vivace.	!	!LO:TX:a:i:t=Vivace	!LO:TX:a:t=Tutti.	!LO:TX:a:Bi:t=Tutti	!LO:TX:a:t=P:problem:domyślny Tacet. Instrument nie gra w tej części	!
4D\	8d/L	8d/L	1r	.	1r	.	8r	.	4D\	4d/	4d/	1ryy	1ryy
.	8f#/	8dd\	.	.	.	.	8dd\L	[R]o-	.	.	.	.	.
4r	8a/	8cc#\	.	.	.	.	8cc#\	.	4r	4r	4r	.	.
.	8g/J	8b\J	.	.	.	.	8b\J	.	.	.	.	.	.
2r	8f#/L	8a/L	.	.	.	.	8a\L	-ra-	2r	2rf	2r	.	.
.	8e/	8g/	.	.	.	.	8g\	.	.	.	.	.	.
.	8d/	8f#/	.	.	.	.	8f#\	.	.	.	.	.	.
.	8c#/J	8e/J	.	.	.	.	8e\J	.	.	.	.	.	.
=2	=2	=2	=2	=2	=2	=2	=2	=2	=2	=2	=2	=2	=2
!	!LO:TX:a:t=P:problem:mixed beam	!LO:TX:a:t=P:problem:mixed beam	!	!	!LO:TX:b:t=P:problem:"R" przed kluczem	!	!	!	!	!	!	!	!
4D\	8d/L	8d/L	8r	.	8r	.	8d/	-te	4D\	4d/	4d/	1ryy	1ryy
.	8dd\	8ff#\	8d\	Ro-	8dd\	[R]o-	8ff#\	Ro-	.	.	.	.	.
4r	8cc#\	8ee\	8c#\L	-ra-	8cc#\L	-ra-	8ee\L	-ra-	4r	4r	4r	.	.
.	8b\J	8dd\J	8B\J	.	8b\J	.	8dd\J	.	.	.	.	.	.
2r	8a/L	8cc#\L	8A\L	.	8a\L	.	8cc#\L	.	2r	2rf	2r	.	.
.	8g/	8b\	8G\	.	8g\	.	8b\	.	.	.	.	.	.
.	8f#/	8a\	8F#\	.	8f#/	.	8a\	.	.	.	.	.	.
.	8e/J	8g\J	8E\J	.	8e/J	.	8g\J	.	.	.	.	.	.
=3	=3	=3	=3	=3	=3	=3	=3	=3	=3	=3	=3	=3	=3
!	!LO:TX:a:t=P:problem:mixed beam	!	!	!	!	!	!	!	!	!	!	!	!
8D\L	8d/L	8f#\L	4D\	-te	4d/	-te	4f#/	-te	4r	4r	4r	1ryy	1ryy
8D\	16dd\L	16ff#\L	.	.	.	.	.	.	.	.	.	.	.
.	16ff#\JJ	16aa\JJ	.	.	.	.	.	.	.	.	.	.	.
*	*	*	*	*	*	*	*	*	*	*	*8\right	*	*
8D\	8ee\L	8gg\L	4r	.	8ee\	cae-	8gg\	Cae-	4AA/	8ee\L	8gg\L	.	.
8D\J	8dd\J	8ff#\J	.	.	8dd\	-li	8ff#\	-li	.	8dd\J	8ff#\J	.	.
8AA/L	8a\L	8a\L	8AA/	cae-	4r	.	4r	.	4r	4r	4r	.	.
8AA/	16cc#\L	16ee\L	8AA/	-li	.	.	.	.	.	.	.	.	.
.	16ee\JJ	16gg\JJ	.	.	.	.	.	.	.	.	.	.	.
8AA/	8dd\L	8ff#\L	4r	.	8dd\	cae-	8ff#\	Cae-	4D\	8dd\L	8ff#\L	.	.
8AA/J	8cc#\J	8ee\J	.	.	8cc#\	-li	8ee\	-li	.	8a\J	8ee\J	.	.
=4	=4	=4	=4	=4	=4	=4	=4	=4	=4	=4	=4	=4	=4
!LO:LB:g=original	!	!	!	!	!	!	!	!	!	!	!	!	!
8D\L	16dd\LL	16ff#\LL	4D\	cae-	16dd\LL	cae-	16ff#\LL	Cae-	8D\L	8dd\L	8ff#\L	1ryy	1ryy
.	16a\	16dd\	.	.	16g\	.	16dd\	.	.	.	.	.	.
*	*	*	*	*	*	*	*	*	*	*	*16\right	*	*
8D\	16dd\	16ff#\	.	.	16dd\	.	16ff#\	.	16D\L	16dd\L	16ff#\L	.	.
.	16ff#\JJ	16aa\JJ	.	.	16ff#\JJ	.	16aa\JJ	.	16D\JJ	16ff#\JJ	16aa\JJ	.	.
8D\	8ee\L	8gg\L	4D\	-li	8ee\	.	8gg\L	-li	8AA/L	8ee\L	8gg\L	.	.
8D\J	8dd\J	8ff#\J	.	.	8dd\	-li	8ff#\J	.	8D\J	8dd\J	8ff#\J	.	.
!	!LO:LB:g=original	!LO:LB:g=original	!	!	!	!	!	!	!	!	!	!	!
*	*	*	*	*ij	*	*	*	*	*	*	*	*	*
8AA/L	16cc#\LL	16ee\LL	4A\	cae-	4r	.	4r	.	8AA/L	8a\L	8ee\L	.	.
.	16a\	16dd\	.	.	.	.	.	.	.	.	.	.	.
8AA/	16cc#\	16ee\	.	.	.	.	.	.	16AA/L	16a\L	16ee\L	.	.
.	16ee\JJ	16gg\JJ	.	.	.	.	.	.	16AA/JJ	16ee\JJ	16gg\JJ	.	.
!	!	!	!	!	!LO:LB:g=original	!	!	!	!	!	!	!	!
*	*	*	*	*	*	*ij	*	*	*	*	*	*	*
8AA/	8dd\L	8ff#\L	4A\	-li	8dd\	cae-	8ff#\L	Cae-	8D\L	8dd\L	8ff#\L	.	.
8AA/J	8cc#\J	8ee\J	.	.	8cc#\	-li	8ee\J	.	8AA\J	8a\J	8ee\J	.	.
*	*	*	*	*Xij	*	*Xij	*	*	*	*	*	*	*
=5	=5	=5	=5	=5	=5	=5	=5	=5	=5	=5	=5	=5	=5
!	!	!	!	!	!	!	!LO:LB:g=original	!	!LO:LB:g=original	!LO:LB:g=original	!LO:LB:g=original	!	!
8D\L	8dd\L	8ff#\L	8D\	cae-	8dd\	cae-	8ff#\	-li	8D\L	8dd\L	8ff#\L	1ryy	1ryy
8F#\	16dd\L	16ff#\L	8F#\	-li	8ff#\	-li	8aa\	de	8D\	8ff#\	8aa\	.	.
.	16ff#\JJ	16aa\JJ	.	.	.	.	.	.	.	.	.	.	.
8E\	8ee\L	8gg\L	8E\	de	8ee\	de	8gg\	.	8AA\	8ee\	8gg\	.	.
8D\J	8dd\J	8ff#\J	8D\	su-	8dd\	su-	8ff#\	su-	8D\J	8dd\J	8ff#\J	.	.
!	!	!	!LO:LB:g=original	!	!	!	!	!	!	!	!	!	!
*	*2\right	*2\right	*2\right	*	*2\right	*	*2\right	*	*	*	*2\right	*	*
8AA/L	2cc#\	2ee\	2A\	-per	2cc#\	-per	2ee\	-per	2AA/TT	2a/	2ee\	.	.
8AA/J	.	.	.	.	.	.	.	.	.	.	.	.	.
4AA/	.	.	.	.	.	.	.	.	.	.	.	.	.
=6	=6	=6	=6	=6	=6	=6	=6	=6	=6	=6	=6	=6	=6
*	*	*	*	*	*	*	*	*	*	*	*4\right	*	*
!	!	!	!	!	!	!	!	!	!	!LO:TX:a:t=P:problem:pięć kolejnych taktów pokreślonych ołówkiem	!	!	!
8D\L	8dd\L	8dd\L	4d\	et	4dd\	et	4ff#\	et	4D\TT	4dd\	4dd\	1ryy	1ryy
8D\	16dd\L	16ff#\L	.	.	.	.	.	.	.	.	.	.	.
.	16a\JJ	16aa\JJ	.	.	.	.	.	.	.	.	.	.	.
8D\	8ff#\L	8ddd\L	8d\	nu-	8dd\	nu-	8ff#\	nu-	4D\TTT	4dd\	4dd\	.	.
8D\J	8ff#\J	8ddd\J	8d\	-bes	8dd\	-bes	8ff#\	-bes	.	.	.	.	.
*tremolo	*	*	*	*	*	*	*	*	*	*	*	*	*
*2\right	*	*	*	*	*	*	*	*	*	*	*	*	*
8D\L	16ff#\`LL	16ddd\LL	8d\	plu-	8dd\	plu-	8ff#\	plu-	4D\	4dd\	4dd\	.	.
.	16ff#\`	(16aa\	.	.	.	.	.	.	.	.	.	.	.
8D\	(16ee\	16gg\	8d\	-ant	8dd\	-ant	8ff#\	-ant	.	.	.	.	.
.	16dd\JJ)	16ff#\JJ)	.	.	.	.	.	.	.	.	.	.	.
8D\	16ff#\`LL	16ddd\LL	8d\	jus-	8dd\	jus-	8ff#\	jus-	4r	4r	4r	.	.
.	16ff#\`	(16aa\	.	.	.	.	.	.	.	.	.	.	.
8D\J	(16ee\	16gg\	8d\	-tu(m)	8dd\	-tum	8ff#\	-tum	.	.	.	.	.
.	16dd\JJ)	16ff#\JJ)	.	.	.	.	.	.	.	.	.	.	.
=7	=7	=7	=7	=7	=7	=7	=7	=7	=7	=7	=7	=7	=7
8AA/L	8a\L	8a\L	4A\	a-	4b\	a-	4a\	a-	4AA/TT	4ee\	4ee\	1ryy	1ryy
8AA/	16cc#\L	16cc#\L	.	.	.	.	.	.	.	.	.	.	.
.	16a\JJ	16ee\JJ	.	.	.	.	.	.	.	.	.	.	.
!	!	!	!	!	!	!	!	!	!	!	!LO:TX:a:t=P:problem:nieczytelny zapis	!	!
8AA/	8ee\L	8gg\L	8A\	-pe-	8ee\	-pe-	8gg\	-pe-	4AA/TTT	4ee\	4ee\	.	.
8AA/J	8ee\J	8gg\J	8A\	-ri-	8ee\	-ri-	8gg\	-ri-	.	.	.	.	.
8AA/L	16ee\LL	16gg\LL	8A\	-a-	8ee\	-a-	8gg\	-a-	4AA/	4ee\	4ee\	.	.
.	16ee\	16ee\	.	.	.	.	.	.	.	.	.	.	.
8AA/	16cc#\	16cc#\	8A\	-tur	8ee\	-tur	8gg\	-tur	.	.	.	.	.
.	16a\JJ	16a\JJ	.	.	.	.	.	.	.	.	.	.	.
8AA/	16ee\LL	16gg\LL	8A\	ter-	8ee\	ter-	8gg\	ter-	4r	4r	4r	.	.
.	16ee\	16ee\	.	.	.	.	.	.	.	.	.	.	.
8AA/J	16cc#\	16cc#\	8A\	-ra	8ee\	-ra	8gg\	-ra	.	.	.	.	.
.	16a\JJ	16a\JJ	.	.	.	.	.	.	.	.	.	.	.
=8	=8	=8	=8	=8	=8	=8	=8	=8	=8	=8	=8	=8	=8
!LO:LB:g=original	!LO:LB:g=original	!LO:LB:g=original	!	!	!LO:LB:g=original	!	!	!	!	!	!	!	!
8D\L	(16dd\LL	(16ff#\LL	8D\	et	8dd\	et	8ff#\	et	4D\	4f#/	4f#/	1ryy	1ryy
.	16cc#\)	16ee\)	.	.	.	.	.	.	.	.	.	.	.
8E\	(16ee\	(16gg\	8E\	ger-	8ee\	ger-	8gg\	ger-	.	.	.	.	.
.	16dd\JJ)	16ff#\JJ)	.	.	.	.	.	.	.	.	.	.	.
8F#\	(16ff#\LL	(16aa\LL	8F#\	-mi-	8ff#\	-mi-	8aa\	-mi-	4r	4r	4r	.	.
.	16ee\)	16gg\)	.	.	.	.	.	.	.	.	.	.	.
8G\J	(16gg\	(16bb\	8G\	-net	8gg\	-net	8gg\	-net	.	.	.	.	.
.	16ff#\JJ)	16dd\JJ)	.	.	.	.	.	.	.	.	.	.	.
8D\L	(16f#/LL	(16dd\LL	8D\	sal-	8ff#\	Sal-	8dd\	Sal-	2r	2r	2r	.	.
.	16e/)	16cc#\)	.	.	.	.	.	.	.	.	.	.	.
8E\	(16g/	(16ee\	8E\	-va-	8gg\	-va-	8ee\	-va-	.	.	.	.	.
.	16f#/JJ)	16dd\JJ)	.	.	.	.	.	.	.	.	.	.	.
8F#\	(16dd\LL	(16ff#\LL	8F#\	-to-	8aa\	-to-	8ff#\	-to-	.	.	.	.	.
.	16cc#\)	16ee\)	.	.	.	.	.	.	.	.	.	.	.
8G\J	(16ee\	(16gg\	8G\	-rem	8bb\	-rem	8gg\	-rem	.	.	.	.	.
.	16cc#\JJ)	16ee\JJ)	.	.	.	.	.	.	.	.	.	.	.
=9	=9	=9	=9	=9	=9	=9	=9	=9	=9	=9	=9	=9	=9
!	!	!	!LO:LB:g=original	!	!	!	!LO:LB:g=original	!	!	!	!	!	!
4D\	16f#\LL	16dd\LL	4D\	Sal-	4ff#\	Sal-	4dd\	Sal-	4D\	4f#/	4f#/	1ryy	1ryy
.	16dd\	16ff#\	.	.	.	.	.	.	.	.	.	.	.
.	16cc#\	16ee\	.	.	.	.	.	.	.	.	.	.	.
.	16b\JJ	16dd\JJ	.	.	.	.	.	.	.	.	.	.	.
4r	16a/LL	16cc#\LL	4r	.	4r	.	4r	.	4r	4r	4r	.	.
.	16g/	16b\	.	.	.	.	.	.	.	.	.	.	.
.	16f#/	16a\	.	.	.	.	.	.	.	.	.	.	.
.	16e/JJ	16g\JJ	.	.	.	.	.	.	.	.	.	.	.
!	!LO:TX:a:t=P:problem:mixed beam	!	!	!	!	!	!	!	!	!	!	!	!
16D\LL	16d/LL	16f#\LL	4D\	-va-	4ff#\	-va-	4dd\	-va-	2r	4f#/	4f#/	.	.
16d\	16ff#\	16dd\	.	.	.	.	.	.	.	.	.	.	.
16c#\	16ee\	16cc#\	.	.	.	.	.	.	.	.	.	.	.
16B\JJ	16dd\JJ	16b\JJ	.	.	.	.	.	.	.	.	.	.	.
16A\LL	16cc#\LL	16a/LL	4r	.	4r	.	4r	.	.	4r	4r	.	.
16G\	16b\	16g/	.	.	.	.	.	.	.	.	.	.	.
16F#\	16a\	16f#/	.	.	.	.	.	.	.	.	.	.	.
16E\JJ	16g\JJ	16e/JJ	.	.	.	.	.	.	.	.	.	.	.
=10	=10	=10	=10	=10	=10	=10	=10	=10	=10	=10	=10	=10	=10
!	!	!	!	!	!	!	!	!	!	!	!LO:LB:g=original	!	!
!LO:TX:a:t=P:problem:mixed beam	!	!LO:TX:a:t=P:problem:mixed beam	!	!	!LO:TX:a:t=P:problem:zapis nieczytelny	!	!	!	!	!	!	!	!
8D\L	8d/L	8d/L	4D\	-to-	(4ff#\	-to-	(4dd\	-to-	8D\L	8f#/L	8f#/L	1ryy	1ryy
8D\	8f#/	8dd\	.	.	.	.	.	.	16D\L	8f#/	8f#/	.	.
.	.	.	.	.	.	.	.	.	16D\JJ	.	.	.	.
8A\	8c#/	8a\	4A\	.	4a\)	.	4cc#\)	.	8D\L	8f#/	8f#/	.	.
8AA/J	8e/J	8cc#\J	.	.	.	.	.	.	8D\J	8f#/J	8f#/J	.	.
4D\	4f#/	4dd\	4D\	-rem	4f#/	-rem	4dd\	-rem	4D\	4f#/	4f#/	.	.
4r	4r	4r	4r	.	4r	.	4r	.	4r	4r	4r	.	.
=11||	=11||	=11||	=11||	=11||	=11||	=11||	=11||	=11||	=11||	=11||	=11||	=11||	=11||
!LO:LB:g=original	!	!	!	!	!	!	!	!	!	!LO:LB:g=original	!	!	!
*M3/4	*M3/4	*M3/4	*M3/4	*	*M3/4	*	*M3/4	*	*M3/4	*M3/4	*M3/4	*M3/4	*M3/4
*	*	*	*	*	*	*	*k[f#c#]	*	*	*	*	*	*
!LO:TX:a:i:t=adagio	!LO:TX:a:Bi:t=adagio	!LO:TX:a:Bi:t=adagio	!	!	!LO:TX:a:t=2	!	!LO:TX:a:t=P:problem:kolejność znaków f# cc#	!	!	!LO:TX:a:Bi:t=adagio	!LO:TX:a:i:t=dagio	!	!
!LO:TX:b:i:t=Benedixisti	!LO:TX:b:Bi:t=Benedixisti.	!LO:TX:b:Bi:t=Benedixisti.	!	!	!LO:TX:a:Bi:t=adagio	!	!	!	!LO:TX:a:Bi:t=Benedixisti Tacet	!LO:TX:b:i:t=Benedixisti.	!LO:TX:b:i:t=Benedixisti	!	!
!	!	!	!	!	!LO:N:vis=0	!	!LO:N:vis=0	!	!	!LO:N:vis=00	!LO:N:vis=00	!	!
4D\	4f#/	4dd\	4d\	Be-	1.r	.	1.r	.	2.ryy	0.r	0.r	2.ryy	2.ryy
4r	4r	4r	8A\	-ne-	.	.	.	.	.	.	.	.	.
!	!	!	!LO:TX:a:Bi:t=adagio	!	!	!	!	!	!	!	!	!	!
.	.	.	8G\	-di-	.	.	.	.	.	.	.	.	.
4r	4r	4r	8F#\	-xi-	.	.	.	.	.	.	.	.	.
.	.	.	8E\	-sti	.	.	.	.	.	.	.	.	.
=12	=12	=12	=12	=12	=12	=12	=12	=12	=12	=12	=12	=12	=12
!	!LO:LB:g=original	!LO:LB:g=original	!	!	!	!	!	!	!	!	!	!	!
!	!LO:TX:a:t=1	!LO:TX:a:t=1	!	!	!	!	!	!	!	!	!	!	!
8D\L	2.r	2.r	8F#\	Do-	.	.	.	.	2.ryy	.	.	2.ryy	2.ryy
8AA/J	.	.	8E\	-mi-	.	.	.	.	.	.	.	.	.
4D\	.	.	4D\	-ne	.	.	.	.	.	.	.	.	.
4r	.	.	4r	.	.	.	.	.	.	.	.	.	.
=13	=13	=13	=13	=13	=13	=13	=13	=13	=13	=13	=13	=13	=13
!	!	!	!LO:TX:a:t=3	!	!	!	!	!	!	!	!	!	!
!	!	!	!LO:N:vis=0	!	!	!	!	!	!	!	!	!	!
4D\	4dd\	4ff#\	1.r	.	4dd\	Be-	4ff#\	Be-	2.ryy	.	.	2.ryy	2.ryy
4r	8r	8r	.	.	8dd\	-ne-	8ff#\	-ne-	.	.	.	.	.
.	8ff#\L	8aa\L	.	.	8ff#\	-di-	8aa\	-di-	.	.	.	.	.
!	!	!	!	!	!LO:LB:g=original	!	!	!	!	!	!	!	!
4r	8ee\	8gg\	.	.	8ee\	-xi-	8gg\	-xi-	.	.	.	.	.
.	8dd\J	8ff#\J	.	.	8dd\	-sti	8ff#\	-sti	.	.	.	.	.
=14	=14	=14	=14	=14	=14	=14	=14	=14	=14	=14	=14	=14	=14
*	*	*	*	*	*	*ij	*	*	*	*	*	*	*
4AA/	4cc#\	4ee\	.	.	4cc#\	be-	4ee\	be-	2.ryy	.	.	2.ryy	2.ryy
4r	8r	8r	.	.	8cc#\	-ne-	8ee\	-ne-	.	.	.	.	.
.	8ee\L	8gg\L	.	.	8ee\	-di-	8gg\	-di-	.	.	.	.	.
4r	8dd\	8ff#\	.	.	8dd\	-xi-	8ff#\	-xi-	.	.	.	.	.
.	8cc#\J	8ee\J	.	.	8cc#\	-sti	8ee\	-sti	.	.	.	.	.
*	*	*	*	*	*	*Xij	*	*	*	*	*	*	*
=15	=15	=15	=15	=15	=15	=15	=15	=15	=15	=15	=15	=15	=15
!	!	!	!	!	!	!	!	!	!	!LO:N:vis=00	!LO:N:vis=00	!	!
4D\	8dd\L	8ff#\L	2.r	.	8dd\	Do-	8ff#\	Do-	2.ryy	0.r	0.r	2.ryy	2.ryy
.	16ee\L	16gg\L	.	.	16ee\	-mi-	16gg\	-mi-	.	.	.	.	.
.	16ff#\JJ	16aa\JJ	.	.	16ff#\	-ne	16aa\	-ne	.	.	.	.	.
4F#\	4ee\	4gg\	.	.	4ee\	ter-	4gg\	ter-	.	.	.	.	.
4D\	4dd\	4ff#\	.	.	4dd\	-ram	4ff#\	-ra(m)	.	.	.	.	.
=16	=16	=16	=16	=16	=16	=16	=16	=16	=16	=16	=16	=16	=16
!	!	!	!	!	!	!	!LO:LB:g=original	!	!	!	!	!	!
4A\	4dd\	4ff#\	4D\	tu-	4dd\	tu-	4ff#\	tu-	2.ryy	.	.	2.ryy	2.ryy
4AA/	2cc#\	2ee\	2A\	-am	2cc#\	-am	2ee\	-am	.	.	.	.	.
4AA/	.	.	.	.	.	.	.	.	.	.	.	.	.
=17	=17	=17	=17	=17	=17	=17	=17	=17	=17	=17	=17	=17	=17
!LO:LB:g=original	!	!	!LO:LB:g=original	!	!	!	!	!	!	!	!	!	!
!	!	!	!LO:TX:a:t=3	!	!	!	!	!	!	!	!	!	!
!	!	!	!LO:N:vis=0	!	!	!	!	!	!	!	!	!	!
4AA/	4.cc#\	4.ee\	1.r	.	4.cc#\	a-	(4.ee\	a-	2.ryy	.	.	2.ryy	2.ryy
4AA/	.	.	.	.	.	.	.	.	.	.	.	.	.
!	!LO:TX:a:t=P:problem:mixed beam	!	!	!	!	!	!	!	!	!	!	!	!
.	8ee\L	8gg\L	.	.	8ee\	-ver-	8gg\)	.	.	.	.	.	.
4AA/	8dd\	8ff#\	.	.	8dd\L	.	(8ff#\L	-ver-	.	.	.	.	.
.	8f#/J	8dd\J	.	.	8f#\J	.	8dd\J)	.	.	.	.	.	.
=18	=18	=18	=18	=18	=18	=18	=18	=18	=18	=18	=18	=18	=18
4AA/	2e/	2cc#\	.	.	2e/	-tis-	2cc#\	-tis-	2.ryy	.	.	2.ryy	2.ryy
4AA/	.	.	.	.	.	.	.	.	.	.	.	.	.
4D\	4f#/	4dd\	.	.	4f#/	-ti	4dd\	-ti	.	.	.	.	.
=19	=19	=19	=19	=19	=19	=19	=19	=19	=19	=19	=19	=19	=19
!	!LO:TX:a:t=P:problem:takty 19-20 zapisane repetycją	!	!	!	!	!	!	!	!	!LO:N:vis=0	!LO:N:vis=0	!	!
4AA/	4.cc#\	4ee\	2.r	.	4cc#\	ca-	4ee\	cap-	2.ryy	1.r	1.r	2.ryy	2.ryy
!	!	!	!	!	!LO:LB:g=original	!	!	!	!	!	!	!	!
4AA/	.	8ee\L	.	.	8ee\	-pti-	8gg\	-ti-	.	.	.	.	.
!	!LO:TX:a:t=P:problem:mixed beam	!	!	!	!	!	!	!	!	!	!	!	!
.	8ee\L	8gg\	.	.	8dd\	-vi-	8ff#\	-vi-	.	.	.	.	.
4AA/	8dd\	8ff#\	.	.	8ff#\	-ta-	8aa\	-ta-	.	.	.	.	.
.	8f#/J	8dd\J	.	.	8dd\	-tem	8dd\	-tem	.	.	.	.	.
=20	=20	=20	=20	=20	=20	=20	=20	=20	=20	=20	=20	=20	=20
!	!	!LO:LB:g=original	!	!	!	!	!	!	!	!	!	!	!
4AA/	2e/	2cc#\	2A\	Ja-	2e/	Ja-	2ee\	Ja-	2.ryy	.	.	2.ryy	2.ryy
4AA/	.	.	.	.	.	.	.	.	.	.	.	.	.
4D\	4f#/	4dd\	4D\	-cob	4f#/	-cob	4dd\	-cob	.	.	.	.	.
=21	=21	=21	=21	=21	=21	=21	=21	=21	=21	=21	=21	=21	=21
!	!LO:LB:g=original	!	!	!	!	!	!	!	!	!	!	!	!
4D\	16f#/LL	16dd\LL	4D\	glo-	4dd\	Glo-	4dd\	Glo-	2.ryy	4f#/	4dd\	2.ryy	2.ryy
.	16f#/	16dd\	.	.	.	.	.	.	.	.	.	.	.
.	16f#/	16dd\	.	.	.	.	.	.	.	.	.	.	.
.	16f#/JJ	16dd\JJ	.	.	.	.	.	.	.	.	.	.	.
*	*	*tremolo	*	*	*	*	*	*	*	*	*	*	*
4D\	16dd\LL	16ff#\LL	4D\	-ri-	4dd\	-ri-	4ff#\	-ri-	.	4dd\	4ff#\	.	.
.	16dd\	16ff#\	.	.	.	.	.	.	.	.	.	.	.
.	16dd\	16ff#\	.	.	.	.	.	.	.	.	.	.	.
.	16dd\JJ	16ff#\JJ	.	.	.	.	.	.	.	.	.	.	.
4D\	16ff#\LL	16aa\LL	4D\	-a	4ff#\	-a	4aa\	-a	.	4ff#\	4aa\	.	.
.	16ff#\	16aa\	.	.	.	.	.	.	.	.	.	.	.
.	16ff#\	16aa\	.	.	.	.	.	.	.	.	.	.	.
.	16ff#\JJ	16aa\JJ	.	.	.	.	.	.	.	.	.	.	.
=22	=22	=22	=22	=22	=22	=22	=22	=22	=22	=22	=22	=22	=22
!	!	!	!LO:TX:a:t=1	!	!	!	!	!	!	!	!	!	!
4D\	4ff#\	4aa\	2.r	.	4ff#\	Pa-	(4aa\	Pa-	2.ryy	4ff#\	4aa\	2.ryy	2.ryy
4r	4r	4r	.	.	4ee\	.	4gg\)	.	.	4r	4r	.	.
4r	4r	4r	.	.	4dd\	-tri	4ff#\	-tri	.	4r	4r	.	.
=23	=23	=23	=23	=23	=23	=23	=23	=23	=23	=23	=23	=23	=23
!	!	!	!	!	!	!	!LO:LB:g=original	!	!	!	!	!	!
4AA/	16a\LL	16a/LL	4A\	glo-	4a\	glo-	4a\	Glo-	2.ryy	4a\	4ee\	2.ryy	2.ryy
.	16a\	16a/	.	.	.	.	.	.	.	.	.	.	.
.	16a\	16a/	.	.	.	.	.	.	.	.	.	.	.
.	16a\JJ	16a/JJ	.	.	.	.	.	.	.	.	.	.	.
*	*tremolo	*	*	*	*	*	*	*	*	*	*	*	*
4AA/	16cc#\LL	16ee\LL	4A\	-ri-	4cc#\	-ri-	4ee\	-ri-	.	4ee\	4gg\	.	.
.	16cc#\	16ee\	.	.	.	.	.	.	.	.	.	.	.
.	16cc#\	16ee\	.	.	.	.	.	.	.	.	.	.	.
.	16cc#\JJ	16ee\JJ	.	.	.	.	.	.	.	.	.	.	.
4AA/	16ee\LL	16gg\LL	4A\	-a	4ee\	-a	4gg\	-a	.	4ee\	4gg\	.	.
.	16ee\	16gg\	.	.	.	.	.	.	.	.	.	.	.
.	16ee\	16gg\	.	.	.	.	.	.	.	.	.	.	.
.	16ee\JJ	16gg\JJ	.	.	.	.	.	.	.	.	.	.	.
*	*	*Xtremolo	*	*	*	*	*	*	*	*	*	*	*
*	*Xtremolo	*	*	*	*	*	*	*	*	*	*	*	*
=24	=24	=24	=24	=24	=24	=24	=24	=24	=24	=24	=24	=24	=24
!LO:LB:g=original	!	!	!LO:TX:a:t=2	!	!	!	!	!	!	!	!	!	!
!	!	!	!LO:N:vis=0	!	!	!	!	!	!	!	!	!	!
4AA/	4ee\	4gg\	1.r	.	4ee\	Fi-	4gg\	Fi-	2.ryy	4ee\	4gg\	2.ryy	2.ryy
4r	4r	4r	.	.	4dd\	-li-	4ff#\	-li-	.	4r	4r	.	.
4r	4r	4r	.	.	4cc#\	-o	4ee\	-o	.	4r	4r	.	.
=25	=25	=25	=25	=25	=25	=25	=25	=25	=25	=25	=25	=25	=25
!	!	!	!	!	!	!	!	!	!	!	!LO:LB:g=original	!	!
!	!	!	!	!	!	!	!	!	!	!	!LO:TX:a:t=1	!	!
4D\	8ff#\L	8aa\L	.	.	8ff#\	et	8aa\	et	2.ryy	2.r	2.r	2.ryy	2.ryy
.	8ee\	8gg\	.	.	8ee\	Spi-	8gg\	Spi-	.	.	.	.	.
4F#\	8dd\	8ff#\	.	.	8dd\L	-ri-	8ff#\L	-ri-	.	.	.	.	.
.	8ff#\	8aa\	.	.	8ff#\J	.	8aa\J	.	.	.	.	.	.
4D\	8ee\	8gg\	.	.	8ee\	-tu-	8gg\	-tu-	.	.	.	.	.
.	8dd\J	8ff#\J	.	.	8dd\	-i	8ff#\	-i	.	.	.	.	.
=26	=26	=26	=26	=26	=26	=26	=26	=26	=26	=26	=26	=26	=26
!	!	!	!	!	!	!	!	!	!	!LO:N:vis=2.	!	!	!
4A\	2b\	2ee\	2A\	San-	2g\	San-	2ee\	San-	2.ryy	2a/	2ee\	2.ryy	2.ryy
4AA/	.	.	.	.	.	.	.	.	.	.	.	.	.
4D\	4dd\	4dd\	4D\	-cto	4f#/	-cto	4dd\	-cto	.	4f#/	4dd\	.	.
=27	=27	=27	=27	=27	=27	=27	=27	=27	=27	=27	=27	=27	=27
!	!	!	!	!	!LO:LB:g=original	!	!	!	!	!	!	!	!
!	!	!	!LO:TX:a:t=1	!	!LO:TX:a:t=1	!	!	!	!	!	!	!	!
4D\	2.r	8a\L	2.r	.	2.r	.	8a\L	Si-	2.ryy	2.r	2.r	2.ryy	2.ryy
.	.	8dd\	.	.	.	.	8dd\	.	.	.	.	.	.
4r	.	8cc#\	.	.	.	.	8cc#\	.	.	.	.	.	.
.	.	8dd\	.	.	.	.	8dd\J	.	.	.	.	.	.
4r	.	8cc#\	.	.	.	.	8cc#\L	-cut	.	.	.	.	.
.	.	8b\J	.	.	.	.	8b\J	.	.	.	.	.	.
=28	=28	=28	=28	=28	=28	=28	=28	=28	=28	=28	=28	=28	=28
!	!	!LO:LB:g=original	!	!	!	!	!	!	!	!	!	!	!
4D\	4f#/	4a/	(4d\	e-	(4f#/	e-	(4a\	e-	2.ryy	4ff#\	4aa\	2.ryy	2.ryy
4A\	4e/	4g/	4A\)	.	4e/)	.	4g\)	.	.	4ee\	4gg\	.	.
4D\	4d/	4f#/	4D\	-rat	4d/	-rat	4f#\	-rat	.	4dd\	4ff#\	.	.
=29	=29	=29	=29	=29	=29	=29	=29	=29	=29	=29	=29	=29	=29
!	!LO:LB:g=original	!	!	!	!	!	!	!	!	!LO:LB:g=original	!	!	!
!	!LO:TX:a:t=P:problem:mixed beam	!LO:TX:a:t=P:problem:mixed beam	!LO:TX:a:t=1	!	!	!	!	!	!	!	!	!	!
4D\	8d/L	8f#/L	2.r	.	8a\L	in	8a\L	in	2.ryy	2.r	2.r	2.ryy	2.ryy
.	8dd\	8ff#\	.	.	8dd\	.	8ff#\	.	.	.	.	.	.
4r	8cc#\	8ee\	.	.	8cc#\	.	8ee\	.	.	.	.	.	.
.	8dd\	8ff#\	.	.	8dd\J	.	8ff#\J	.	.	.	.	.	.
4r	8cc#\	8ee\	.	.	8cc#\L	prin-	8ee\L	prin-	.	.	.	.	.
.	8b\J	8dd\J	.	.	8b\J	.	8dd\J	.	.	.	.	.	.
=30	=30	=30	=30	=30	=30	=30	=30	=30	=30	=30	=30	=30	=30
!	!	!	!	!	!	!	!LO:LB:g=original	!	!	!	!	!	!
4D\	4f#/	4a/	4d\	ci-	4f#/	-ci-	4a/	-ci-	2.ryy	4ff#\	4aa\	2.ryy	2.ryy
4A\	4e/	4g/	4A\	-pi-	4e/	-pi-	4g/	-pi-	.	4ee\	4gg\	.	.
!LO:LB:g=original	!	!	!	!	!	!	!	!	!	!	!	!	!
4D\	4d/	4f#/	4D\	-o	4d/	-o	4f#/	-o	.	4dd\	4ff#\	.	.
=31	=31	=31	=31	=31	=31	=31	=31	=31	=31	=31	=31	=31	=31
!	!	!	!LO:LB:g=original	!	!	!	!	!	!	!	!	!	!
8D\L	4ff#\	4aa\	4D\	et	4ff#\	et	4aa\	et	2.ryy	2.r	2.r	2.ryy	2.ryy
8D\	.	.	.	.	.	.	.	.	.	.	.	.	.
8D\	8dd\L	8ff#\L	4D\	nunc	8dd\L	nunc	8ff#\L	nunc	.	.	.	.	.
8D\	8ff#\	8aa\	.	.	8ff#\J	.	8aa\J	.	.	.	.	.	.
8D\	8ee\	8gg\	4D\	et	8ee\L	et	8gg\L	et	.	.	.	.	.
8D\J	8dd\J	8ff#\J	.	.	8dd\J	.	8ff#\J	.	.	.	.	.	.
*Xtremolo	*	*	*	*	*	*	*	*	*	*	*	*	*
=32	=32	=32	=32	=32	=32	=32	=32	=32	=32	=32	=32	=32	=32
8AA/L	8cc#\L	8ee\L	2AA/	sem-	8cc#\L	sem-	8ee\L	sem-	2.ryy	8a\L	8ee\L	2.ryy	2.ryy
8AA/	8dd\	8ff#\	.	.	8dd\	.	8ff#\	.	.	8dd\	8ff#\	.	.
8AA/	8ee\	8gg\	.	.	8ee\	.	8gg\	.	.	8ee\	8gg\	.	.
8AA/J	8cc#\J	8ee\J	.	.	8cc#\J	.	8ee\J	.	.	8a\J	8ee\J	.	.
4D\	4dd\	4ff#\	4D\	-per	4dd\	-per	4ff#\	-per	.	4dd\	4ff#\	.	.
=33	=33	=33	=33	=33	=33	=33	=33	=33	=33	=33	=33	=33	=33
!	!	!	!	!	!	!	!	!	!	!	!LO:LB:g=original	!	!
!	!	!	!LO:TX:a:t=3	!	!	!	!	!	!	!LO:TX:a:t=2	!	!	!
!	!	!	!LO:N:vis=0	!	!	!	!	!	!	!LO:N:vis=0	!LO:N:vis=0	!	!
4D\	8dd\L	8ff#\L	1.r	.	8dd\	et	8ff#\	et	2.ryy	1.r	1.r	2.ryy	2.ryy
.	8ff#\J	8aa\J	.	.	8ff#\	in	8aa\	in	.	.	.	.	.
4D\	4.ee\	4.gg\	.	.	4.ee\	Sae-	4.gg\	Sae-	.	.	.	.	.
4D\	.	.	.	.	.	.	.	.	.	.	.	.	.
.	8dd\	8ff#\	.	.	8dd\	-cu-	8ff#\	-cu-	.	.	.	.	.
=34	=34	=34	=34	=34	=34	=34	=34	=34	=34	=34	=34	=34	=34
4AA/	8cc#\L	8ee\L	.	.	8cc#\L	-la	8ee\L	-la	2.ryy	.	.	2.ryy	2.ryy
.	8ee\J	8gg\J	.	.	8ee\J	.	8gg\J	.	.	.	.	.	.
4AA/	4.dd\	4.ff#\	.	.	4.dd\	Sae-	4.ff#\	Sae-	.	.	.	.	.
4AA/	.	.	.	.	.	.	.	.	.	.	.	.	.
.	8cc#\	8ee\	.	.	8cc#\	-cu-	8ee\	-cu-	.	.	.	.	.
=35	=35	=35	=35	=35	=35	=35	=35	=35	=35	=35	=35	=35	=35
!	!	!	!	!	!LO:LB:g=original	!	!	!	!	!	!	!	!
4D\	8d/L	8f#/L	2.r	.	8dd\L	-lo-	8ff#\L	-lo-	2.ryy	8dd\L	8ff#\L	2.ryy	2.ryy
.	8f#/J	8a/J	.	.	8ff#\J	.	8aa\J	.	.	8ff#\J	8aa\J	.	.
!	!LO:LB:g=original	!	!	!	!	!	!	!	!	!	!	!	!
4F#\	4.e/	4.g/	.	.	4.ee\	.	4.gg\	.	.	4.ee\	4.gg\	.	.
4D\	.	.	.	.	.	.	.	.	.	.	.	.	.
.	8d/	8f#/	.	.	8dd\	-rum	8ff#\	-rum	.	8dd\	8ff#\	.	.
=36	=36	=36	=36	=36	=36	=36	=36	=36	=36	=36	=36	=36	=36
!	!	!LO:LB:g=original	!	!	!	!	!LO:LB:g=original	!	!	!	!	!	!
4A\	4d/	4f#/	4D\	a-	4dd\	a-	4ff#\	a-	2.ryy	4dd\	4ff#\	2.ryy	2.ryy
4AA/	2c#/	2e/	2A\	-men	2cc#\	-men	2ee\	-men	.	2a/	2ee\	.	.
4AA/	.	.	.	.	.	.	.	.	.	.	.	.	.
=37	=37	=37	=37	=37	=37	=37	=37	=37	=37	=37	=37	=37	=37
!	!	!	!	!	!	!	!	!	!	!LO:TX:a:t=P:problem:niejednoznaczny zapis	!	!	!
4D\	8ff#\L	8aa\L	4D\	a-	8ff#\L	a-	8aa\L	a-	2.ryy	4ff#\	4ff#\	2.ryy	2.ryy
.	8ee\J	8gg\J	.	.	8ee\J	.	8gg\J	.	.	.	.	.	.
!	!	!	!	!	!	!	!LO:N:vis=4	!	!	!	!	!	!
!LO:TX:a:t=P:problem:nieczytelny skan	!	!	!	!	!	!	!LO:N:vis=4\right	!	!	!	!	!	!
4rr	4.dd\	4.ff#\	4r	.	2dd\	-men	2ff#\	-men	.	4r	4r	.	.
!LO:TX:a:t=P:problem:nieczytelny skan	!	!	!	!	!	!	!	!	!	!	!	!	!
4rr	.	.	4r	.	.	.	.	.	.	4r	4r	.	.
.	8ff#\	8aa\	.	.	.	.	.	.	.	.	.	.	.
=38	=38	=38	=38	=38	=38	=38	=38	=38	=38	=38	=38	=38	=38
!LO:LB:g=original	!	!	!	!	!	!	!	!	!	!	!	!	!
*	*	*	*	*	*	*ij	*	*	*	*	*	*	*
4AA/	8ee\L	8gg\L	4A\	-men	8ee\L	a-	8gg\L	a-	2.ryy	4ee\	4ee\	2.ryy	2.ryy
.	8dd\J	8ff#\J	.	.	8dd\J	.	8ff#\J	.	.	.	.	.	.
4r	4.cc#\	4.ee\	4r	.	2cc#\	-men	2ee\	-men	.	4r	4r	.	.
4r	.	.	4r	.	.	.	.	.	.	4r	4r	.	.
.	8ee\	8gg\	.	.	.	.	.	.	.	.	.	.	.
=39	=39	=39	=39	=39	=39	=39	=39	=39	=39	=39	=39	=39	=39
!	!	!	!	!	!	!	!	!	!	!LO:LB:g=original	!	!	!
*	*	*	*	*ij	*	*	*	*	*	*	*	*	*
4D\	4dd\	8ff#\L	4D\	a-	4dd\	a-	4dd\	a-	2.ryy	4dd\	4dd\	2.ryy	2.ryy
.	.	8dd\J	.	.	.	.	.	.	.	.	.	.	.
4A\	2a/	2ee\	2A\	-men	2a\	-men	2ee\	.	.	2a/	2ee\	.	.
*	*	*	*	*	*	*Xij	*	*	*	*	*	*	*
4AA/	.	.	.	.	.	.	.	.	.	.	.	.	.
=40	=40	=40	=40	=40	=40	=40	=40	=40	=40	=40	=40	=40	=40
!	!	!	!	!	!	!	!	!	!	!LO:TX:a:t=P:problem:w dwóch taktach dopisane ołówkiem 4d	!	!	!
8d\L	8f#/L	8dd\L	4D\	a-	8f#\L	a-	8dd\L	.	2.ryy	4f#/	4dd\	2.ryy	2.ryy
8c#\	8a/	8cc#\	.	.	8a\	.	8cc#\	.	.	.	.	.	.
8B\	8g/	8b\	4r	.	8g\	.	8b\	.	.	4r	4r	.	.
8A\	8f#/	8a\	.	.	8f#\	.	8a\	.	.	.	.	.	.
8G\	8e/	8g\	4r	.	8e\	.	8g\	.	.	4r	4r	.	.
8F#\J	8d/J	8f#\J	.	.	8d\J	.	8f#\J	.	.	.	.	.	.
=41	=41	=41	=41	=41	=41	=41	=41	=41	=41	=41	=41	=41	=41
!	!	!	!	!	!	!	!	!	!	!	!LO:LB:g=original	!	!
!	!	!LO:TX:a:t=P:problem:mixed beam	!	!	!	!	!LO:TX:a:t=P:problem:mixed beam	!	!	!	!	!	!
8D\L	8f#/L	8d/L	4D\	-men	8f#\L	.	8d/L	.	2.ryy	4f#/	4dd\	2.ryy	2.ryy
8d\	8b\	8dd\	.	.	8b\	.	8dd\	.	.	.	.	.	.
8c#\	8a/	8cc#\	4r	.	8a\	.	8cc#\	.	.	4r	4r	.	.
8B\	8g/	8b\	.	.	8g\	.	8b\	.	.	.	.	.	.
8A\	8f#/	8a\	4r	.	8f#\	.	8a\	.	.	4r	4r	.	.
8G\J	8e/J	8g\J	.	.	8e\J	.	8g\J	.	.	.	.	.	.
=42	=42	=42	=42	=42	=42	=42	=42	=42	=42	=42	=42	=42	=42
!	!LO:LB:g=original	!	!LO:LB:g=original	!	!	!	!	!	!	!	!	!	!
!	!	!	!LO:TX:a:t=1	!	!	!	!	!	!	!	!	!	!
8D\L	8d/L	8f#\L	2.r	.	8d\L	.	8a\L	.	2.ryy	2.r	2.r	2.ryy	2.ryy
8E\	8e/	8g\	.	.	8e\	.	8b\	.	.	.	.	.	.
8F#\	8f#/	8a\	.	.	8f#\	.	8cc#\	.	.	.	.	.	.
8G\	8g/	8b\	.	.	8g\	.	8dd\	.	.	.	.	.	.
8A\	8a/	8cc#\	.	.	8a\	.	8ee\	.	.	.	.	.	.
8B\J	8b\J	8dd\J	.	.	8b\J	.	8ff#\J	.	.	.	.	.	.
=43	=43	=43	=43	=43	=43	=43	=43	=43	=43	=43	=43	=43	=43
4A\	4g/	4ee\	4D\	a-	4g/	.	4gg\	.	2.ryy	4a/	4ee\	2.ryy	2.ryy
4AA/	4e/	4cc#\	4A\	.	4e/	.	4ee\	.	.	4a/	4a\	.	.
!LO:TX:b:Bi:t=Da Capo	!LO:TX:b:Bi:t=Da capo.	!LO:TX:b:Bi:t=Da capo.	!LO:TX:b:i:t=Da capo.	!	!LO:TX:b:i:t=Da Capo.	!	!LO:TX:b:Bi:t=Da Capo.	!	!LO:TX:b:Bi:t=Rorate Da Capo	!LO:TX:b:i:t=Da Capo.	!LO:TX:b:i:t=Da Capo.	!	!
4D\	4f#/	4dd\	4D\	-men	4f#/	-men.	4ff#\	-men.	.	4f#/	4dd\	.	.
==	==	==	==	==	==	==	==	==	==	==	==	==	==
*-	*-	*-	*-	*-	*-	*-	*-	*-	*-	*-	*-	*-	*-
!!!system-decoration: [g1]s5[g2][g3]s11
!!!RDF**kern: > = above
!!!RDF**kern: < = below
!!!ENC: Marcin Jachim
!!!END: 2020-04-27
!!!ENC: Marta Lawrence
!!!END: 2020-06-25
